X:1
T:Deus misereatur nostri
T:Alessandro Grandi (1586 - 1630)
T:Deus misereatur nostri
T:(c) Wim Looyestijn-2018. May be freely copied for non-commercial use.
T:(c) Wim Looyestijn-2018. May be freely copied for non-commercial use.
T:(c) Wim Looyestijn-2018. May be freely copied for non-commercial use.
T:(c) Wim Looyestijn-2018. May be freely copied for non-commercial use.
T:(c) Wim Looyestijn-2018. May be freely copied for non-commercial use.
T:(c) Wim Looyestijn-2018. May be freely copied for non-commercial use.
T:(c) Wim Looyestijn-2018. May be freely copied for non-commercial use.
C:Alessandro Grandi
C:(1586 - 1630)
Z:(c) Wim Looyestijn-2018. May be freely copied for non-commercial use.
%%score [ 1 2 3 ] 4
L:1/8
Q:1/4=80
M:4/4
K:F
V:1 bass nm="Basso 1" snm="V1"
V:2 bass nm="Basso 2" snm="V2"
V:3 bass nm="Basso 3" snm="V3"
V:4 bass nm="Basso continuo" snm="BC"
V:1
 x8 | z8 |[K:G] x8 | G,8 | D,4 z2 B,,2 | C,2 D,2 E,2 B,,2 | D,6 D,/B,,/C,/D,/ | G,,8 | z8 | z8 | %10
w: |||De-|us mi-|se- re- a- tur|no- * * * *|stri,|||
 z8 | z8 | z8 | G,8 | A,6 D,2 | G,2 A,2 B,2 F,2 | A,8 | D,4 A,4- | A,4 ^G,4 | z8 | z8 | z8 | z8 | %23
w: |||De-|us, mi-|se- re- a- tur|no-|stri, De-|* us,|||||
 G,8 | D,4 z2 D,2 | A,2 B,2 C2 A,2 | B,8 | A,8- | A,8 | G,8 | z8 | z8 | z4 z E,D,C, | G,2 F,2 A,4 | %34
w: De-|us, mi-|se- re- a- tur|no-|||stri,|||et be- ne-|di- cat no-|
 D,4 z4 | z8 | z4 z C,B,,A,, | E,4 B,4 | A,8 | G,8 | z8 | z2 C2 B,3 B, | B,4 z4 | z8 | z8 | z8 | %46
w: bis,||et be- ne-|di- cat|no-|bis.||Il- lu- mi-|net,||||
 z4 z2 E,2 | A,2 A,A, F,2 B,2 | E,2 E,2 C,2 G,2 | C,2 z2 z4 | z2 G,4 A,2 | B,8 | B,8 | z8 | %54
w: il-|lu- mi- net vul- tum|su- um su- per|nos,|su- per|nos,|et,||
 E,4 z2 B,2 | A,2 G,2 F,2 B,2 | G,4 G,,4 | C,4 z4 | z8 | B,8 | z8 | z4 z2 A,2 | G,2 F,2 E,2 G,2 | %63
w: et mi-|se- re- a- tur|no- *|stri,||et||mi-|se- re- a- tur|
 B,8 | E,8 | z8 | z8 | G,4 G,2 D,2 | E,4 E,2 B,,2 | C,3 B,, C,2 D,2 | G,,2 G,,2 z4 | z8 | z8 | z8 | %74
w: no-|stri.|||Ut cog- no-|sca- mus in|ter- ra vi- am|tu- am,||||
 G,4 G,2 D,2 | E,4 E,2 B,,2 | C,4 C,2 D,2 | E,3 D, E,2 F,/D,/E,/F,/ | G,4 G,4 | C4 C2 G,2 | %80
w: ut cog- no-|sca- mus in|ter- ra, in|ter- ra vi- am * * *|tu- am,|ut cog- no-|
 A,4 A,2 E,2 | =F,3 E, F,2 C2 | =F,2 F,2 z2 C2 | C3 C D2 D2 | C4 C4 | z8 | z4 z2 D,2 | %87
w: sca- mus in|ter- ra vi- am|tu- am, in|ter- ra vi- am|tu- am,||in|
 B,,2 A,,G,, D,3 D, | G,,2 z2 z4 | z4 z2 E,E, | A,2 F,2 B,4 | E,4 z4 | z2 G,,G,, C,2 C,2 | %93
w: om- ni- bus gen- ti-|bus|sa- lu-|ta- re tu-|um,|sa- lu- ta- re,|
 z4 z2 E,2 | A,2 A,A, ^G,3 G, | A,4 z2 E,D, | C,2 A,,2 z4 | z2 E,D, C,A,,A,B, | C4 B,4 | A,8 | %100
w: in|om- ni- bus gen- ti-|bus sa- lu-|ta- re,|sa- lu- ta- re, sa- lu-|ta- re|tu-|
 G,16 |] %101
w: um.|
V:2
 x8 | z8 |[K:G] x8 | z8 | z8 | z8 | z8 | G,8 | D,4 z2 B,,2 | C,2 D,2 E,2 B,,2 | D,>E, B,,>C, D,4 | %11
w: |||||||De-|us mi-|se- re- a- tur|no- * * * *|
 G,,8 | z8 | z4 G,4- | G,4 F,4 | z8 | z8 | A,8 | B,6 E,2 | A,2 B,2 C2 ^G,2 | B,8 | E,8 | z8 | z8 | %24
w: stri,||De-|* us,|||mi-|se- re-|a- tur no- *||stri,|||
 D,8 | A,,4 z2 A,,2 | E,2 F,2 G,2 D,2 | E,2 F,2 G,4- | G,4 F,4 | G,8 | z8 | z8 | %32
w: De-|us, mi-|se- re- a- tur|no- * *||stri,|||
 z C,B,,A,, E,2 E,2 | z8 | z =F,E,D, A,2 A,2 | z8 | z8 | z E,D,C, G,4 | F,2 G,4 F,2 | G,4 z2 G,,2 | %40
w: et be- ne- di- cat||et be- ne- di- cat|||et be- ne- di-|cat no- *|bis. Il-|
 D,3 D, D,4 | z2 A,2 ^G,3 G, | ^G,4 z4 | z8 | z4 z2 D,2 | G,2 G,G, E,2 A,2 | D,2 D,2 B,,2 E,2 | %47
w: lu- mi- net,|il- lu- mi-|net,||il-|lu- mi- net vul- tum|su- um su- per|
 A,,4 z4 | z8 | C,2 G,2 C,2 z2 | z2 E,4 F,2 | G,8 | G,4 z2 G,2 | =F,2 E,2 D,2 G,2 | E,8 | A,,4 z4 | %56
w: nos,||su- per nos,|su- per|nos,|et mi-|se- re- a- tur|no-|stri,|
 z8 | z8 | z8 | G,4 z2 G,2 | =F,2 E,2 D,2 F,2 | A,8 | E,8 | z8 | z8 | z8 | z8 | z8 | z8 | z8 | z8 | %71
w: |||et mi-|se- re- a- tur|no-|stri.|||||||||
 z8 | z8 | G,4 G,2 D,2 | E,4 E,2 B,,2 | C,3 B,, C,2 G,2 | C,2 C,2 z2 G,2 | G,3 G, A,2 A,2 | %78
w: ||Ut cog- no-|sca- mus in|ter- ra vi- am|tu- am, in|ter- ra vi- am|
 B,4 B,4 | z8 | C4 C2 G,2 | A,4 A,2 E,2 | =F,4 F,2 G,2 | A,3 G, A,2 B,2 | C4 G,4 | z4 z2 D,2 | %86
w: tu- am,||ut cog- no-|sca- mus in|ter- ra, in|ter- ra vi- am|tu- am,|in|
 B,,2 A,,G,, D,3 D, | G,,4 z2 D,D, | G,2 E,2 A,4 | D,4 z4 | z8 | z2 C,C, =F,2 E,2 | G,4 C,4 | z8 | %94
w: om- ni- bus gen- ti-|bus sa- lu-|ta- re tu-|um,||sa- lu- ta- re|tu- um,||
 z4 z2 E,2 | A,2 A,A, ^G,3 G, | A,4 z4 | z4 z2 E,D, | C,A,,E,F, G,4 | F,2 G,4 F,2 | G,16 |] %101
w: in|om- ni- bus gen- ti-|bus|sa- lu-|ta- re, sa- lu- ta-|re tu- *|um.|
V:3
 x8 | z8 |[K:G] x8 | z8 | z8 | z8 | z8 | z8 | z8 | z8 | z8 | G,8 | D,4 z2 B,,2 | C,2 D,2 E,2 B,,2 | %14
w: |||||||||||De-|us mi-|se- re- a- tur|
 D,<A,, B,,<G,, D,4 | G,,4 z4 | z4 z2 A,,2 | D,2 E,2 =F,2 ^C,2 | E,8 | A,,4 z4 | z8 | z8 | C,8 | %23
w: no- * * * *|stri,|mi-|se- re- a- tur|no-|stri,|||De-|
 G,,4 z2 G,,2 | D,2 E,2 =F,2 D,2 | E,4 E,4 | z4 z2 B,,2 | C,2 D,2 E,2 B,,2 | D,8 | %29
w: us, mi-|se- re- a- tur|no- stri,|mi-|se- re- a- tur|no-|
 G,,4 z B,,A,,G,, | D,6 ^C,2 | E,8 | A,,4 z4 | z8 | z4 z C,B,,A,, | E,2 ^C,2 E,4 | A,,8 | %37
w: stri, et be- ne-|di- cat|no-|bis,||et be- ne-|di- cat no-|bis,|
 z4 z B,,A,,G,, | D,2 B,,2 D,4 | G,,8 | z8 | z2 A,,2 E,3 E, | E,4 z2 C,2 | =F,2 F,F, D,2 G,2 | %44
w: et be- ne-|di- cat no-|bis.||Il- lu- mi-|net, il-|lu- mi- net vul- tum|
 C,2 C,2 A,,2 D,2 | G,,4 z4 | z8 | z8 | z8 | z4 C,2 G,2 | C,2 C,4 A,,2 | G,,8 | G,,8 | z8 | z8 | %55
w: su- um su- per|nos,||||su- per|nos, su- per|nos,|et,|||
 z8 | G,4 z2 =F,2 | E,2 D,2 C,2 =F,2 | D,8 | G,,8 | z4 z2 D,2 | C,2 B,,2 A,,2 C,2 | E,8 | %63
w: |et mi-|se- re- a- tur|no-|stri,|mi-|se- re- a- tur|no-|
 B,,4 z2 B,,2 | E,2 D,2 C,2 E,2 | G,8 | C,8 | z8 | z8 | z8 | G,4 G,2 D,2 | E,4 E,2 B,,2 | %72
w: stri, mi-|se- re- a- tur|no-|stri.||||Ut cog- no-|sca- mus in|
 C,3 B,, C,2 D,2 | G,,2 G,,2 z4 | z8 | G,4 G,2 D,2 | E,4 E,2 B,,2 | C,3 B,, C,2 D,2 | G,,4 G,,4 | %79
w: ter- ra vi- am|tu- am,||ut cog- no-|sca- mus in|ter- ra vi- am|tu- am,|
 z8 | z8 | C4 C2 G,2 | A,4 A,2 E,2 | =F,3 E, F,2 G,2 | C,4 C,2 C,2 | B,,2 A,,G,, D,3 D, | G,,4 z4 | %87
w: ||ut cog- no-|sca- mus in|ter- ra vi- am|tu- am, in|om- ni- bus gen- ti-|bus|
 z8 | z4 z2 A,,A,, | D,2 B,,2 E,4 | A,,2 z2 z2 B,,B,, | E,2 E,2 z4 | z4 z2 A,,A,, | D,2 ^C,2 E,4 | %94
w: |sa- lu-|ta- re tu-|um, sa- lu-|ta- re,|sa- lu-|ta- re tu-|
 A,,2 A,,2 E,2 E,D, | C,2 A,,2 E,4 | z2 A,G, =F,2 D,2 | E,4 A,,4 | z2 C,D, E,E,B,,C, | %99
w: um, in om- ni- bus|gen- ti- bus|sa- lu- ta- re|tu- um,|sa- lu- ta- re, sa- lu-|
 D,2 C,2 D,4 | G,,16 |] %101
w: ta- re tu-|um.|
V:4
 x8 | z8 |[K:G] x8 | G,8 | D,6 B,,2 | C,2 D,2 E,2 B,,2 | D,8 | G,,8 | D,6 B,,2 | C,2 D,2 E,2 B,,2 | %10
w: ||||||||||
 D,8 | G,,8 | D,6 B,,2 | C,2 D,2 E,2 B,,2 | D,8 | G,2 A,2 B,2 F,2 | A,8 | D,2 E,2 =F,2 ^C,2 | E,8 | %19
w: |||||||||
 A,2 B,2 C2 ^G,2 | B,8 | E,8 | C,8 | G,,8 | D,8 | A,,8 | E,6 B,,2 | C,2 D,2 E,2 B,,2 | D,8 | G,,8 | %30
w: |||||||||||
 D,6 ^C,2 | E,8 | A,,4 C,4 | G,2 F,2 A,4 | D,4 A,,4 | E,2 ^C,2 E,4 | A,,8 | C,4 G,,4 | %38
w: * 6||||z *||||
 D,2 B,,2 D,4 | G,,8 | D,8 | z2 A,,2 E,4 | E,6 C,2 | =F,4 D,2 G,2 | C,4 A,,2 D,2 | G,4 E,2 A,2 | %46
w: |||* x|||||
 D,4 B,,2 E,2 | A,4 F,2 B,2 | E,4 C,2 G,2 | C,2 G,2 C,2 G,,2 | C,6 A,,2 | G,,8 | G,,6 G,2 | %53
w: |||||||
 =F,2 E,2 D,2 G,2 | E,8 | A,2 G,2 F,2 B,2 | G,8 | C,6 =F,2 | D,8 | G,,8 | D,8 | A,,8 | E,8 | B,,8 | %64
w: |||||||z||||
 E,2 D,2 C,2 E,2 | G,8 | C,8 | G,4 G,2 D,2 | E,4 E,2 B,,2 | C,3 B,, C,2 D,2 | G,,6 D,2 | E,6 B,,2 | %72
w: ||||||||
 C,3 B,, C,2 D,2 | G,,6 D,2 | E,6 B,,2 | C,6 B,,2 | C,6 B,,2 | C,3 B,, C,2 D,2 | G,,8 | C4 C2 G,2 | %80
w: ||||||||
 A,6 E,2 | =F,6 E,2 | =F,6 E,2 | =F,3 E, F,2 G,2 | C,8 | B,,2 A,,G,, D,4 | G,,4 D,4 | %87
w: |||||||
 B,,2 A,,G,, D,4 | G,2 E,2 A,4 | D,2 B,,2 E,4 | A,2 F,2 B,4 | E,2 C,2 =F,2 E,2 | G,4 C,2 A,,2 | %93
w: ||||||
 D,2 ^C,2 E,4 | A,,4 E,4 | A,,4 E,4 | A,,4 =F,2 D,2 | E,4 A,,4 | A,,4 E,2 B,,C, | D,2 C,2 D,4 | %100
w: |||||||
 G,,16 |] %101
w: |

